X:633
T:Dick Sullivan's favorite
R:Jig
O:Ireland
B:O'Neill's 1027
B:Krassen O'Neill's p56
S:O'Neill's 1027
Z:Transcription, chords:Mike Long
M:6/8
L:1/8
K:G
"G"(B/c/d)c BdB|GBd gdB|Bdc BdB|"D"AFA cBA|\
"G"(B/c/d)c BdB|GBd gdB|"C"cac "G"BgB|"D"AFA cBA:|
|:"G"dgf gdB|gag gba|gag gdB|"D"(F/G/A)B "(C)"cde|\
"G"dgf gdB|gfe dcB|"C"cac "G"BgB|"D"AFA cBA:|
|:"G"dBG GBc|"G"dBG "C"gfe|"G"dBG GBG|"D"AFA "(C)"cde|\
"G"dBG GBd|gfe dcB|"C"cac "G"BgB|"D"AFA cBA:|
